X:6
T:Jessica's Polka
M:2/4
L:1/8
R:Polka
C:Mick Hanly
K:A
ef/e/ ce | fe Bc | AA/B/ cA | ec B2 |
ef/e/ ce | fe Bc | AA/B/ cA | FA E2 :|
|: FF/B/ AF | cB A2 | ef/e/ ce | ag f2 |
ef/e/ ce | fe Bc | AA/B/ cA | FA E2 :|

%%newpage
%%scale .65
%%staffsep 30

